storage/app/icons/phosphoricons/bold/gps-fix-bold.svg

<svg xmlns="http://www.w3.org/2000/svg" fill="currentColor" viewBox="0 0 256 256"><path d="M240 116h-20.78A92.21 92.21 0 0 0 140 36.78V16a12 12 0 0 0-24 0v20.78A92.21 92.21 0 0 0 36.78 116H16a12 12 0 0 0 0 24h20.78A92.21 92.21 0 0 0 116 219.22V240a12 12 0 0 0 24 0v-20.78A92.21 92.21 0 0 0 219.22 140H240a12 12 0 0 0 0-24m-112 80a68 68 0 1 1 68-68 68.07 68.07 0 0 1-68 68m0-112a44 44 0 1 0 44 44 44.05 44.05 0 0 0-44-44m0 64a20 20 0 1 1 20-20 20 20 0 0 1-20 20"/></svg>

<svg xmlns="http://www.w3.org/2000/svg" viewBox="0 0 256 256" fill="currentColor"><path d="M240,116H219.22A92.21,92.21,0,0,0,140,36.78V16a12,12,0,0,0-24,0V36.78A92.21,92.21,0,0,0,36.78,116H16a12,12,0,0,0,0,24H36.78A92.21,92.21,0,0,0,116,219.22V240a12,12,0,0,0,24,0V219.22A92.21,92.21,0,0,0,219.22,140H240a12,12,0,0,0,0-24ZM128,196a68,68,0,1,1,68-68A68.07,68.07,0,0,1,128,196Zm0-112a44,44,0,1,0,44,44A44.05,44.05,0,0,0,128,84Zm0,64a20,20,0,1,1,20-20A20,20,0,0,1,128,148Z"/></svg>
